content/images/project/skywalking-eyes.svg

<svg width="36" height="36" viewBox="0 0 36 36" fill="none" xmlns="http://www.w3.org/2000/svg">
<path d="M0 4C0 1.79086 1.79086 0 4 0H32C34.2091 0 36 1.79086 36 4V32C36 34.2091 34.2091 36 32 36H4C1.79086 36 0 34.2091 0 32V4Z" fill="#3987CD"/>
<path fill-rule="evenodd" clip-rule="evenodd" d="M19.0949 8.51137C19.0949 8.221 18.9795 7.94251 18.7742 7.73718C18.5689 7.53186 18.2904 7.4165 18 7.4165C17.7096 7.4165 17.4312 7.53186 17.2258 7.73718C17.0205 7.94251 16.9051 8.221 16.9051 8.51137V10.3362H15.4687C15.0234 10.3362 14.5869 10.4529 14.2001 10.6719L12.3198 11.7478C12.2643 11.7796 12.2013 11.7962 12.1374 11.796H8.8761C8.58572 11.796 8.30723 11.9113 8.10191 12.1167C7.89658 12.322 7.78122 12.6005 7.78122 12.8909C7.78122 13.1812 7.89658 13.4597 8.10191 13.665C8.30723 13.8704 8.58572 13.9857 8.8761 13.9857H9.5009L6.41775 20.8352C6.32668 21.0379 6.29941 21.2634 6.33957 21.4819C6.37972 21.7004 6.4854 21.9016 6.64256 22.0586L7.41627 21.2849L6.64256 22.0586V22.06L6.64548 22.063L6.6484 22.0659L6.65716 22.0746L6.68051 22.0965L6.74621 22.1549C7.05323 22.4122 7.38933 22.6327 7.74765 22.8118C8.66691 23.26 9.67826 23.487 10.7009 23.4746C11.9855 23.4746 12.9724 23.1534 13.6541 22.8118C14.0124 22.6327 14.3485 22.4122 14.6556 22.1549L14.7212 22.0965L14.7446 22.0746L14.7534 22.0659L14.7563 22.063L14.7577 22.06L13.9855 21.2849L14.7592 22.0586C14.9164 21.9016 15.022 21.7004 15.0622 21.4819C15.1023 21.2634 15.0751 21.0379 14.984 20.8352L11.9009 13.9857H12.1374C12.5826 13.9857 13.0191 13.8689 13.4059 13.65L15.2877 12.5741C15.3428 12.5425 15.4052 12.5259 15.4687 12.5259H16.9051V26.3943H13.2556C12.9652 26.3943 12.6867 26.5096 12.4814 26.7149C12.2761 26.9203 12.1607 27.1988 12.1607 27.4891C12.1607 27.7795 12.2761 28.058 12.4814 28.2633C12.6867 28.4687 12.9652 28.584 13.2556 28.584H22.7445C23.0348 28.584 23.3133 28.4687 23.5187 28.2633C23.724 28.058 23.8393 27.7795 23.8393 27.4891C23.8393 27.1988 23.724 26.9203 23.5187 26.7149C23.3133 26.5096 23.0348 26.3943 22.7445 26.3943H19.0949V12.5259H20.5314C20.5949 12.5259 20.6573 12.5425 20.7124 12.5741L22.5956 13.6485C22.981 13.8704 23.4174 13.9857 23.8627 13.9857H24.0992L21.016 20.8352C20.925 21.0379 20.8977 21.2634 20.9378 21.4819C20.978 21.7004 21.0837 21.9016 21.2408 22.0586L22.0145 21.2849L21.2408 22.0586V22.06L21.2438 22.063L21.2467 22.0659L21.2554 22.0746L21.2788 22.0965L21.3445 22.1549C21.6515 22.4122 21.9876 22.6327 22.3459 22.8118C23.2652 23.26 24.2765 23.487 25.2992 23.4746C26.5838 23.4746 27.5707 23.1534 28.2524 22.8118C28.6107 22.6327 28.9468 22.4123 29.2538 22.1549L29.3195 22.0965L29.3341 22.0819L29.3429 22.0746L29.3516 22.0659L29.3546 22.063L29.356 22.06L28.5838 21.2849L29.3575 22.0586C29.5146 21.9016 29.6203 21.7004 29.6605 21.4819C29.7006 21.2634 29.6734 21.0379 29.5823 20.8352L26.5006 13.9857H27.1239C27.4143 13.9857 27.6928 13.8704 27.8981 13.665C28.1035 13.4597 28.2188 13.1812 28.2188 12.8909C28.2188 12.6005 28.1035 12.322 27.8981 12.1167C27.6928 11.9113 27.4143 11.796 27.1239 11.796H23.8627C23.7992 11.796 23.7368 11.7793 23.6817 11.7478L21.7985 10.6734C21.4131 10.4529 20.9768 10.3367 20.5328 10.3362H19.0949V8.51137ZM8.79581 20.8863C9.21186 21.0834 9.84396 21.2849 10.7009 21.2849C11.5578 21.2849 12.1899 21.0834 12.606 20.8863L10.7009 16.6528L8.79581 20.8863ZM23.3941 20.8863C23.8101 21.0834 24.4422 21.2849 25.2992 21.2849C26.1561 21.2849 26.7882 21.0834 27.2042 20.8863L25.2992 16.6528L23.3941 20.8863Z" fill="white"/>
</svg>

<svg xmlns="http://www.w3.org/2000/svg" width="36" height="36" fill="none" viewBox="0 0 36 36"><path fill="#3987CD" d="M0 4a4 4 0 0 1 4-4h28a4 4 0 0 1 4 4v28a4 4 0 0 1-4 4H4a4 4 0 0 1-4-4V4Z"/><path fill="#fff" fill-rule="evenodd" d="M19.095 8.511a1.095 1.095 0 0 0-2.19 0v1.825H15.47c-.446 0-.882.117-1.269.336l-1.88 1.076a.365.365 0 0 1-.183.048h-3.26a1.095 1.095 0 1 0 0 2.19H9.5l-3.083 6.85a1.095 1.095 0 0 0 .225 1.223l.773-.774-.773.774v.001l.002.003.003.003.01.009.023.021.065.059a5.13 5.13 0 0 0 1.002.657c.919.448 1.93.675 2.953.663 1.284 0 2.271-.322 2.953-.663.358-.18.694-.4 1.002-.657l.065-.059.024-.021.008-.01.003-.002.002-.003-.772-.775.773.774a1.095 1.095 0 0 0 .225-1.224l-3.083-6.85h.236c.446 0 .882-.116 1.269-.335l1.882-1.076a.364.364 0 0 1 .18-.048h1.437v13.868h-3.65a1.095 1.095 0 1 0 0 2.19h9.49a1.095 1.095 0 0 0 0-2.19h-3.65V12.526h1.436c.064 0 .126.017.181.048l1.884 1.075c.385.221.821.337 1.267.337h.236l-3.083 6.85a1.096 1.096 0 0 0 .225 1.223l.774-.774-.774.774v.001l.003.003.003.003.008.009.024.021.066.059a5.13 5.13 0 0 0 1 .657 6.57 6.57 0 0 0 2.954.663c1.285 0 2.272-.322 2.953-.663.359-.18.695-.4 1.002-.657l.066-.059.014-.014.009-.007.009-.01.003-.002.001-.003-.772-.775.774.774a1.096 1.096 0 0 0 .224-1.224l-3.081-6.85h.623a1.095 1.095 0 1 0 0-2.189h-3.261a.365.365 0 0 1-.181-.048l-1.883-1.075a2.555 2.555 0 0 0-1.266-.337h-1.438V8.511Zm-10.3 12.375c.417.197 1.049.399 1.906.399s1.489-.202 1.905-.399l-1.905-4.233-1.905 4.233Zm14.6 0c.415.197 1.047.399 1.904.399s1.49-.202 1.905-.399L25.3 16.653l-1.905 4.233Z" clip-rule="evenodd"/></svg>
